(G-CODE GENERATED BY FLATCAM v8.994 - www.flatcam.org - Version Date: 2020/11/7)

(Name: Proyecto Agricultura - CADCAM Bottom Copper.GBR_copy_2_cutout_cnc)
(Type: G-code from Geometry)
(Units: MM)

(Created on Friday, 14 February 2025 at 17:05)

(This preprocessor is the default preprocessor used by FlatCAM.)
(It is made to work with MACH3 compatible motion controllers.)

(TOOL DIAMETER: 2.0 mm)
(Feedrate_XY: 150.0 mm/min)
(Feedrate_Z: 150.0 mm/min)
(Feedrate rapids 1500.0 mm/min)

(Z_Cut: -2.5 mm)
(Z_Move: 1.0 mm)
(Z Start: None mm)
(Z End: 15.0 mm)
(X,Y End: None mm)
(Steps per circle: 64)
(Preprocessor Geometry: default)

(X range:   -1.1000 ...   81.3033  mm)
(Y range:  127.9000 ...  255.3033  mm)

(Spindle Speed: 7000.0 RPM)
G21
G90
G94

G01 F150.00

M5

G00 Z15.0000

M03 S7000.0
G01 F150.00
G00 X38.9517 Y127.9000
G01 F150.00
G01 Z-2.5000
G01 F150.00
G01 X0.0000 Y127.9000
G01 X-0.1078 Y127.9053
G01 X-0.2146 Y127.9211
G01 X-0.3193 Y127.9474
G01 X-0.4210 Y127.9837
G01 X-0.5185 Y128.0299
G01 X-0.6111 Y128.0854
G01 X-0.6978 Y128.1497
G01 X-0.7778 Y128.2222
G01 X-0.8503 Y128.3022
G01 X-0.9146 Y128.3889
G01 X-0.9701 Y128.4815
G01 X-1.0163 Y128.5790
G01 X-1.0526 Y128.6807
G01 X-1.0789 Y128.7854
G01 X-1.0947 Y128.8922
G01 X-1.1000 Y129.0000
G01 X-1.1000 Y190.4517
G00 Z1.0000
G00 X-1.1000 Y192.9517
G01 F150.00
G01 Z-2.5000
G01 F150.00
G01 X-1.1000 Y254.2033
G01 X-1.0947 Y254.3111
G01 X-1.0789 Y254.4179
G01 X-1.0526 Y254.5226
G01 X-1.0163 Y254.6243
G01 X-0.9701 Y254.7218
G01 X-0.9146 Y254.8144
G01 X-0.8503 Y254.9011
G01 X-0.7778 Y254.9811
G01 X-0.6978 Y255.0536
G01 X-0.6111 Y255.1179
G01 X-0.5185 Y255.1734
G01 X-0.4210 Y255.2196
G01 X-0.3193 Y255.2559
G01 X-0.2146 Y255.2822
G01 X-0.1078 Y255.2980
G01 X0.0000 Y255.3033
G01 X38.9517 Y255.3033
G00 Z1.0000
G00 X41.4517 Y255.3033
G01 F150.00
G01 Z-2.5000
G01 F150.00
G01 X80.2033 Y255.3033
G01 X80.3111 Y255.2980
G01 X80.4179 Y255.2822
G01 X80.5226 Y255.2559
G01 X80.6243 Y255.2196
G01 X80.7218 Y255.1734
G01 X80.8144 Y255.1179
G01 X80.9011 Y255.0536
G01 X80.9811 Y254.9811
G01 X81.0536 Y254.9011
G01 X81.1179 Y254.8144
G01 X81.1734 Y254.7218
G01 X81.2196 Y254.6243
G01 X81.2559 Y254.5226
G01 X81.2822 Y254.4179
G01 X81.2980 Y254.3111
G01 X81.3033 Y254.2033
G01 X81.3033 Y192.9517
G00 Z1.0000
G00 X81.3033 Y190.4517
G01 F150.00
G01 Z-2.5000
G01 F150.00
G01 X81.3033 Y129.0000
G01 X81.2980 Y128.8922
G01 X81.2822 Y128.7854
G01 X81.2559 Y128.6807
G01 X81.2196 Y128.5790
G01 X81.1734 Y128.4815
G01 X81.1179 Y128.3889
G01 X81.0536 Y128.3022
G01 X80.9811 Y128.2222
G01 X80.9011 Y128.1497
G01 X80.8144 Y128.0854
G01 X80.7218 Y128.0299
G01 X80.6243 Y127.9837
G01 X80.5226 Y127.9474
G01 X80.4179 Y127.9211
G01 X80.3111 Y127.9053
G01 X80.2033 Y127.9000
G01 X41.4517 Y127.9000
G00 Z1.0000
M05
G00 Z1.0000
G00 Z15.00


