(G-CODE GENERATED BY FLATCAM v8.994 - www.flatcam.org - Version Date: 2020/11/7)

(Name: Proyecto Agricultura - CADCAM Bottom Copper.GBR_cutout_1_cnc)
(Type: G-code from Geometry)
(Units: MM)

(Created on Friday, 14 February 2025 at 17:03)

(This preprocessor is the default preprocessor used by FlatCAM.)
(It is made to work with MACH3 compatible motion controllers.)

(TOOL DIAMETER: 2.4 mm)
(Feedrate_XY: 150.0 mm/min)
(Feedrate_Z: 150.0 mm/min)
(Feedrate rapids 1500.0 mm/min)

(Z_Cut: -2.5 mm)
(Z_Move: 2.0 mm)
(Z Start: None mm)
(Z End: 15.0 mm)
(X,Y End: None mm)
(Steps per circle: 64)
(Preprocessor Geometry: default)

(X range:   -1.3000 ...   81.5033  mm)
(Y range:   -1.3000 ...  126.5033  mm)

(Spindle Speed: 7000.0 RPM)
G21
G90
G94

G01 F150.00

M5
G00 Z15.0000
G00 X0.0000 Y0.0000
T1
M6    
(MSG, Change to Tool Dia = 2.4000)
M0
G00 Z15.0000

M03 S7000.0
G01 F150.00
G00 X38.7517 Y-1.3000
G01 F150.00
G01 Z-2.5000
G01 F150.00
G01 X0.0000 Y-1.3000
G01 X-0.1274 Y-1.2937
G01 X-0.2536 Y-1.2750
G01 X-0.3774 Y-1.2440
G01 X-0.4975 Y-1.2010
G01 X-0.6128 Y-1.1465
G01 X-0.7222 Y-1.0809
G01 X-0.8247 Y-1.0049
G01 X-0.9192 Y-0.9192
G01 X-1.0049 Y-0.8247
G01 X-1.0809 Y-0.7222
G01 X-1.1465 Y-0.6128
G01 X-1.2010 Y-0.4975
G01 X-1.2440 Y-0.3774
G01 X-1.2750 Y-0.2536
G01 X-1.2937 Y-0.1274
G01 X-1.3000 Y0.0000
G01 X-1.3000 Y61.2517
G00 Z2.0000
G00 X-1.3000 Y64.1517
G01 F150.00
G01 Z-2.5000
G01 F150.00
G01 X-1.3000 Y125.2033
G01 X-1.2937 Y125.3307
G01 X-1.2750 Y125.4569
G01 X-1.2440 Y125.5807
G01 X-1.2010 Y125.7008
G01 X-1.1465 Y125.8161
G01 X-1.0809 Y125.9255
G01 X-1.0049 Y126.0280
G01 X-0.9192 Y126.1225
G01 X-0.8247 Y126.2082
G01 X-0.7222 Y126.2842
G01 X-0.6128 Y126.3498
G01 X-0.4975 Y126.4043
G01 X-0.3774 Y126.4473
G01 X-0.2536 Y126.4783
G01 X-0.1274 Y126.4970
G01 X0.0000 Y126.5033
G01 X38.7517 Y126.5033
G00 Z2.0000
G00 X41.6517 Y126.5033
G01 F150.00
G01 Z-2.5000
G01 F150.00
G01 X80.2033 Y126.5033
G01 X80.3307 Y126.4970
G01 X80.4569 Y126.4783
G01 X80.5807 Y126.4473
G01 X80.7008 Y126.4043
G01 X80.8161 Y126.3498
G01 X80.9255 Y126.2842
G01 X81.0280 Y126.2082
G01 X81.1225 Y126.1225
G01 X81.2082 Y126.0280
G01 X81.2842 Y125.9255
G01 X81.3498 Y125.8161
G01 X81.4043 Y125.7008
G01 X81.4473 Y125.5807
G01 X81.4783 Y125.4569
G01 X81.4970 Y125.3307
G01 X81.5033 Y125.2033
G01 X81.5033 Y64.1517
G00 Z2.0000
G00 X81.5033 Y61.2517
G01 F150.00
G01 Z-2.5000
G01 F150.00
G01 X81.5033 Y0.0000
G01 X81.4970 Y-0.1274
G01 X81.4783 Y-0.2536
G01 X81.4473 Y-0.3774
G01 X81.4043 Y-0.4975
G01 X81.3498 Y-0.6128
G01 X81.2842 Y-0.7222
G01 X81.2082 Y-0.8247
G01 X81.1225 Y-0.9192
G01 X81.0280 Y-1.0049
G01 X80.9255 Y-1.0809
G01 X80.8161 Y-1.1465
G01 X80.7008 Y-1.2010
G01 X80.5807 Y-1.2440
G01 X80.4569 Y-1.2750
G01 X80.3307 Y-1.2937
G01 X80.2033 Y-1.3000
G01 X41.6517 Y-1.3000
G00 Z2.0000
M05
G00 Z2.0000
G00 Z15.00


