(G-CODE GENERATED BY FLATCAM v8.994 - www.flatcam.org - Version Date: 2020/11/7)

(Name: Proyecto Agricultura - CADCAM Bottom Copper.GBR_copy_cutout_cnc)
(Type: G-code from Geometry)
(Units: MM)

(Created on Friday, 14 February 2025 at 17:04)

(This preprocessor is the default preprocessor used by FlatCAM.)
(It is made to work with MACH3 compatible motion controllers.)

(TOOL DIAMETER: 2.0 mm)
(Feedrate_XY: 150.0 mm/min)
(Feedrate_Z: 150.0 mm/min)
(Feedrate rapids 1500.0 mm/min)

(Z_Cut: -2.5 mm)
(Z_Move: 1.0 mm)
(Z Start: None mm)
(Z End: 15.0 mm)
(X,Y End: None mm)
(Steps per circle: 64)
(Preprocessor Geometry: default)

(X range:   81.9000 ...  164.3033  mm)
(Y range:   -1.1000 ...  126.3033  mm)

(Spindle Speed: 7000.0 RPM)
G21
G90
G94

G01 F150.00

M5

G00 Z15.0000

M03 S7000.0
G01 F150.00
G00 X81.9000 Y61.4517
G01 F150.00
G01 Z-2.5000
G01 F150.00
G01 X81.9000 Y0.0000
G01 X81.9053 Y-0.1078
G01 X81.9211 Y-0.2146
G01 X81.9474 Y-0.3193
G01 X81.9837 Y-0.4210
G01 X82.0299 Y-0.5185
G01 X82.0854 Y-0.6111
G01 X82.1497 Y-0.6978
G01 X82.2222 Y-0.7778
G01 X82.3022 Y-0.8503
G01 X82.3889 Y-0.9146
G01 X82.4815 Y-0.9701
G01 X82.5790 Y-1.0163
G01 X82.6807 Y-1.0526
G01 X82.7854 Y-1.0789
G01 X82.8922 Y-1.0947
G01 X83.0000 Y-1.1000
G01 X121.9517 Y-1.1000
G00 Z1.0000
G00 X81.9000 Y63.9517
G01 F150.00
G01 Z-2.5000
G01 F150.00
G01 X81.9000 Y125.2033
G01 X81.9053 Y125.3111
G01 X81.9211 Y125.4179
G01 X81.9474 Y125.5226
G01 X81.9837 Y125.6243
G01 X82.0299 Y125.7218
G01 X82.0854 Y125.8144
G01 X82.1497 Y125.9011
G01 X82.2222 Y125.9811
G01 X82.3022 Y126.0536
G01 X82.3889 Y126.1179
G01 X82.4815 Y126.1734
G01 X82.5790 Y126.2196
G01 X82.6807 Y126.2559
G01 X82.7854 Y126.2822
G01 X82.8922 Y126.2980
G01 X83.0000 Y126.3033
G01 X121.9517 Y126.3033
G00 Z1.0000
G00 X124.4517 Y126.3033
G01 F150.00
G01 Z-2.5000
G01 F150.00
G01 X163.2033 Y126.3033
G01 X163.3111 Y126.2980
G01 X163.4179 Y126.2822
G01 X163.5226 Y126.2559
G01 X163.6243 Y126.2196
G01 X163.7218 Y126.1734
G01 X163.8144 Y126.1179
G01 X163.9011 Y126.0536
G01 X163.9811 Y125.9811
G01 X164.0536 Y125.9011
G01 X164.1179 Y125.8144
G01 X164.1734 Y125.7218
G01 X164.2196 Y125.6243
G01 X164.2559 Y125.5226
G01 X164.2822 Y125.4179
G01 X164.2980 Y125.3111
G01 X164.3033 Y125.2033
G01 X164.3033 Y63.9517
G00 Z1.0000
G00 X164.3033 Y61.4517
G01 F150.00
G01 Z-2.5000
G01 F150.00
G01 X164.3033 Y0.0000
G01 X164.2980 Y-0.1078
G01 X164.2822 Y-0.2146
G01 X164.2559 Y-0.3193
G01 X164.2196 Y-0.4210
G01 X164.1734 Y-0.5185
G01 X164.1179 Y-0.6111
G01 X164.0536 Y-0.6978
G01 X163.9811 Y-0.7778
G01 X163.9011 Y-0.8503
G01 X163.8144 Y-0.9146
G01 X163.7218 Y-0.9701
G01 X163.6243 Y-1.0163
G01 X163.5226 Y-1.0526
G01 X163.4179 Y-1.0789
G01 X163.3111 Y-1.0947
G01 X163.2033 Y-1.1000
G01 X124.4517 Y-1.1000
G00 Z1.0000
M05
G00 Z1.0000
G00 Z15.00


