(G-CODE GENERATED BY FLATCAM v8.994 - www.flatcam.org - Version Date: 2020/11/7)

(Name: Proyecto Agricultura - CADCAM Drill.DRL_1_cnc)
(Type: G-code from Geometry)
(Units: MM)

(Created on Friday, 14 February 2025 at 16:56)

(This preprocessor is the default preprocessor used by FlatCAM.)
(It is made to work with MACH3 compatible motion controllers.)


(TOOLS DIAMETER: )
(Tool: 1 -> Dia: 0.381)
(Tool: 2 -> Dia: 1.016)
(Tool: 3 -> Dia: 1.27)
(Tool: 4 -> Dia: 3.5)
(Tool: 5 -> Dia: 1.0)

(FEEDRATE Z: )
(Tool: 1 -> Feedrate: 300)
(Tool: 2 -> Feedrate: 300)
(Tool: 3 -> Feedrate: 300)
(Tool: 4 -> Feedrate: 300)
(Tool: 5 -> Feedrate: 80.0)

(FEEDRATE RAPIDS: )
(Tool: 1 -> Feedrate Rapids: 1500)
(Tool: 2 -> Feedrate Rapids: 1500)
(Tool: 3 -> Feedrate Rapids: 1500)
(Tool: 4 -> Feedrate Rapids: 1500)
(Tool: 5 -> Feedrate Rapids: 1500)

(Z_CUT: )
(Tool: 1 -> Z_Cut: -1.7)
(Tool: 2 -> Z_Cut: -1.7)
(Tool: 3 -> Z_Cut: -1.7)
(Tool: 4 -> Z_Cut: -1.7)
(Tool: 5 -> Z_Cut: -2.5)

(Tools Offset: )
(Tool: 5 -> Offset Z: 0.0)

(Z_MOVE: )
(Tool: 1 -> Z_Move: 2)
(Tool: 2 -> Z_Move: 2)
(Tool: 3 -> Z_Move: 2)
(Tool: 4 -> Z_Move: 2)
(Tool: 5 -> Z_Move: 2)

(Z Toolchange: 35.0 mm)
(X,Y Toolchange: 0.0000, 0.0000 mm)
(Z Start: None mm)
(Z End: 0.5 mm)
(X,Y End: None mm)
(Steps per circle: 64)
(Preprocessor Excellon: default)

(X range:   85.3517 ...  160.8517  mm)
(Y range:    2.4317 ...  122.9317  mm)

(Spindle Speed: 14000 RPM)
G21
G90
G94

G01 F80.00

M5
G00 Z35.0000
T5
G00 X0.0000 Y0.0000                
M6
(MSG, Change to Tool Dia = 1.0000 ||| Total drills for tool T5 = 4)
M0
G00 Z35.0000

G01 F80.00
M03 S14000
G00 X155.1017 Y121.1817
G01 Z-2.5000
G01 Z0
G00 Z2.0000
G00 X91.1017 Y121.1817
G01 Z-2.5000
G01 Z0
G00 Z2.0000
G00 X91.1017 Y4.1817
G01 Z-2.5000
G01 Z0
G00 Z2.0000
G00 X155.1017 Y4.1817
G01 Z-2.5000
G01 Z0
G00 Z2.0000
M05
G00 Z0.50


