(G-CODE GENERATED BY FLATCAM v8.994 - www.flatcam.org - Version Date: 2020/11/7)

(Name: Proyecto Agricultura - CADCAM Drill.DRL_2_cnc)
(Type: G-code from Geometry)
(Units: MM)

(Created on Friday, 14 February 2025 at 17:00)

(This preprocessor is the default preprocessor used by FlatCAM.)
(It is made to work with MACH3 compatible motion controllers.)


(TOOLS DIAMETER: )
(Tool: 1 -> Dia: 0.381)
(Tool: 2 -> Dia: 1.016)
(Tool: 3 -> Dia: 1.27)
(Tool: 4 -> Dia: 3.5)
(Tool: 5 -> Dia: 1.0)

(FEEDRATE Z: )
(Tool: 1 -> Feedrate: 150.0)
(Tool: 2 -> Feedrate: 150.0)
(Tool: 3 -> Feedrate: 150.0)
(Tool: 4 -> Feedrate: 150.0)
(Tool: 5 -> Feedrate: 300)

(FEEDRATE RAPIDS: )
(Tool: 1 -> Feedrate Rapids: 1500)
(Tool: 2 -> Feedrate Rapids: 1500)
(Tool: 3 -> Feedrate Rapids: 1500)
(Tool: 4 -> Feedrate Rapids: 1500)
(Tool: 5 -> Feedrate Rapids: 1500)

(Z_CUT: )
(Tool: 1 -> Z_Cut: -2.5)
(Tool: 2 -> Z_Cut: -2.5)
(Tool: 3 -> Z_Cut: -2.5)
(Tool: 4 -> Z_Cut: -2.5)
(Tool: 5 -> Z_Cut: -1.7)

(Tools Offset: )
(Tool: 1 -> Offset Z: 0.0)
(Tool: 2 -> Offset Z: 0.0)
(Tool: 3 -> Offset Z: 0.0)
(Tool: 4 -> Offset Z: 0.0)

(Z_MOVE: )
(Tool: 1 -> Z_Move: 1.0)
(Tool: 2 -> Z_Move: 1.0)
(Tool: 3 -> Z_Move: 1.0)
(Tool: 4 -> Z_Move: 1.0)
(Tool: 5 -> Z_Move: 2)

(Z Toolchange: 35.0 mm)
(X,Y Toolchange: 0.0000, 0.0000 mm)
(Z Start: None mm)
(Z End: 35.0 mm)
(X,Y End: None mm)
(Steps per circle: 64)
(Preprocessor Excellon: default)

(X range:   85.3517 ...  160.8517  mm)
(Y range:  131.4317 ...  251.9317  mm)

(Spindle Speed: 14000 RPM)
G21
G90
G94

G01 F150.00

M5
G00 Z35.0000

G00 Z35.0000

G01 F150.00
M03 S14000
G00 X156.8667 Y233.8367
G01 Z-2.5000
G01 Z0
G00 Z1.0000
G00 X154.9617 Y224.3117
G01 Z-2.5000
G01 Z0
G00 Z1.0000
G00 X148.6117 Y224.3117
G01 Z-2.5000
G01 Z0
G00 Z1.0000
G00 X148.6117 Y219.2317
G01 Z-2.5000
G01 Z0
G00 Z1.0000
G00 X148.6117 Y214.1517
G01 Z-2.5000
G01 Z0
G00 Z1.0000
G00 X148.6117 Y209.0717
G01 Z-2.5000
G01 Z0
G00 Z1.0000
G00 X148.6117 Y203.9917
G01 Z-2.5000
G01 Z0
G00 Z1.0000
G00 X148.6117 Y198.9117
G01 Z-2.5000
G01 Z0
G00 Z1.0000
G00 X156.8577 Y197.3017
G01 Z-2.5000
G01 Z0
G00 Z1.0000
G00 X148.6117 Y193.8317
G01 Z-2.5000
G01 Z0
G00 Z1.0000
G00 X148.6117 Y188.7517
G01 Z-2.5000
G01 Z0
G00 Z1.0000
G00 X148.6117 Y183.6717
G01 Z-2.5000
G01 Z0
G00 Z1.0000
G00 X141.6987 Y187.1407
G01 Z-2.5000
G01 Z0
G00 Z1.0000
G00 X138.4517 Y183.6717
G01 Z-2.5000
G01 Z0
G00 Z1.0000
G00 X138.4517 Y186.2117
G01 Z-2.5000
G01 Z0
G00 Z1.0000
G00 X138.4517 Y188.7517
G01 Z-2.5000
G01 Z0
G00 Z1.0000
G00 X138.4517 Y191.2917
G01 Z-2.5000
G01 Z0
G00 Z1.0000
G00 X138.4517 Y193.8317
G01 Z-2.5000
G01 Z0
G00 Z1.0000
G00 X138.4517 Y196.3717
G01 Z-2.5000
G01 Z0
G00 Z1.0000
G00 X138.4517 Y198.9117
G01 Z-2.5000
G01 Z0
G00 Z1.0000
G00 X138.4517 Y201.4517
G01 Z-2.5000
G01 Z0
G00 Z1.0000
G00 X138.4517 Y203.9917
G01 Z-2.5000
G01 Z0
G00 Z1.0000
G00 X134.9307 Y205.6117
G01 Z-2.5000
G01 Z0
G00 Z1.0000
G00 X138.4517 Y206.5317
G01 Z-2.5000
G01 Z0
G00 Z1.0000
G00 X138.4517 Y209.0717
G01 Z-2.5000
G01 Z0
G00 Z1.0000
G00 X138.4517 Y211.6117
G01 Z-2.5000
G01 Z0
G00 Z1.0000
G00 X138.4517 Y214.1517
G01 Z-2.5000
G01 Z0
G00 Z1.0000
G00 X138.4517 Y216.6917
G01 Z-2.5000
G01 Z0
G00 Z1.0000
G00 X138.4517 Y219.2317
G01 Z-2.5000
G01 Z0
G00 Z1.0000
G00 X133.8217 Y228.2017
G01 Z-2.5000
G01 Z0
G00 Z1.0000
G00 X124.8917 Y224.4917
G01 Z-2.5000
G01 Z0
G00 Z1.0000
G00 X124.8917 Y229.5717
G01 Z-2.5000
G01 Z0
G00 Z1.0000
G00 X117.2717 Y229.5717
G01 Z-2.5000
G01 Z0
G00 Z1.0000
G00 X117.2717 Y224.4917
G01 Z-2.5000
G01 Z0
G00 Z1.0000
G00 X115.5917 Y219.2317
G01 Z-2.5000
G01 Z0
G00 Z1.0000
G00 X115.5917 Y216.6917
G01 Z-2.5000
G01 Z0
G00 Z1.0000
G00 X115.5917 Y214.1517
G01 Z-2.5000
G01 Z0
G00 Z1.0000
G00 X115.5917 Y211.6117
G01 Z-2.5000
G01 Z0
G00 Z1.0000
G00 X119.2487 Y209.6077
G01 Z-2.5000
G01 Z0
G00 Z1.0000
G00 X115.5917 Y209.0717
G01 Z-2.5000
G01 Z0
G00 Z1.0000
G00 X112.5887 Y208.9097
G01 Z-2.5000
G01 Z0
G00 Z1.0000
G00 X115.5917 Y206.5317
G01 Z-2.5000
G01 Z0
G00 Z1.0000
G00 X115.5917 Y203.9917
G01 Z-2.5000
G01 Z0
G00 Z1.0000
G00 X117.7247 Y202.8247
G01 Z-2.5000
G01 Z0
G00 Z1.0000
G00 X115.5917 Y201.4517
G01 Z-2.5000
G01 Z0
G00 Z1.0000
G00 X115.5917 Y198.9117
G01 Z-2.5000
G01 Z0
G00 Z1.0000
G00 X115.5917 Y196.3717
G01 Z-2.5000
G01 Z0
G00 Z1.0000
G00 X115.5917 Y193.8317
G01 Z-2.5000
G01 Z0
G00 Z1.0000
G00 X112.6457 Y191.5767
G01 Z-2.5000
G01 Z0
G00 Z1.0000
G00 X115.5917 Y191.2917
G01 Z-2.5000
G01 Z0
G00 Z1.0000
G00 X118.1177 Y189.4627
G01 Z-2.5000
G01 Z0
G00 Z1.0000
G00 X115.5917 Y188.7517
G01 Z-2.5000
G01 Z0
G00 Z1.0000
G00 X115.5917 Y186.2117
G01 Z-2.5000
G01 Z0
G00 Z1.0000
G00 X115.5917 Y183.6717
G01 Z-2.5000
G01 Z0
G00 Z1.0000
G00 X115.5917 Y181.1317
G01 Z-2.5000
G01 Z0
G00 Z1.0000
G00 X118.2237 Y179.8487
G01 Z-2.5000
G01 Z0
G00 Z1.0000
G00 X115.5917 Y178.5917
G01 Z-2.5000
G01 Z0
G00 Z1.0000
G00 X115.5917 Y176.0517
G01 Z-2.5000
G01 Z0
G00 Z1.0000
G00 X115.5917 Y173.5117
G01 Z-2.5000
G01 Z0
G00 Z1.0000
G00 X107.9717 Y176.0517
G01 Z-2.5000
G01 Z0
G00 Z1.0000
G00 X103.1617 Y176.0517
G01 Z-2.5000
G01 Z0
G00 Z1.0000
G00 X109.9817 Y170.3117
G01 Z-2.5000
G01 Z0
G00 Z1.0000
G00 X107.9717 Y168.4317
G01 Z-2.5000
G01 Z0
G00 Z1.0000
G00 X103.2617 Y168.4317
G01 Z-2.5000
G01 Z0
G00 Z1.0000
G00 X103.2617 Y160.8117
G01 Z-2.5000
G01 Z0
G00 Z1.0000
G00 X107.9717 Y160.8117
G01 Z-2.5000
G01 Z0
G00 Z1.0000
G00 X115.5917 Y167.1617
G01 Z-2.5000
G01 Z0
G00 Z1.0000
G00 X115.5917 Y164.6217
G01 Z-2.5000
G01 Z0
G00 Z1.0000
G00 X115.5917 Y162.0817
G01 Z-2.5000
G01 Z0
G00 Z1.0000
G00 X115.5917 Y159.5417
G01 Z-2.5000
G01 Z0
G00 Z1.0000
G00 X116.8617 Y151.9217
G01 Z-2.5000
G01 Z0
G00 Z1.0000
G00 X119.4017 Y151.9217
G01 Z-2.5000
G01 Z0
G00 Z1.0000
G00 X119.3467 Y148.5807
G01 Z-2.5000
G01 Z0
G00 Z1.0000
G00 X122.5307 Y147.0077
G01 Z-2.5000
G01 Z0
G00 Z1.0000
G00 X121.9417 Y151.9217
G01 Z-2.5000
G01 Z0
G00 Z1.0000
G00 X124.4817 Y151.9217
G01 Z-2.5000
G01 Z0
G00 Z1.0000
G00 X127.0217 Y151.9217
G01 Z-2.5000
G01 Z0
G00 Z1.0000
G00 X129.5617 Y151.9217
G01 Z-2.5000
G01 Z0
G00 Z1.0000
G00 X126.9627 Y157.9917
G01 Z-2.5000
G01 Z0
G00 Z1.0000
G00 X130.1017 Y165.1817
G01 Z-2.5000
G01 Z0
G00 Z1.0000
G00 X138.4517 Y173.5117
G01 Z-2.5000
G01 Z0
G00 Z1.0000
G00 X138.4517 Y176.0517
G01 Z-2.5000
G01 Z0
G00 Z1.0000
G00 X138.4517 Y178.5917
G01 Z-2.5000
G01 Z0
G00 Z1.0000
G00 X138.4517 Y181.1317
G01 Z-2.5000
G01 Z0
G00 Z1.0000
G00 X148.6117 Y178.5917
G01 Z-2.5000
G01 Z0
G00 Z1.0000
G00 X154.9907 Y175.0667
G01 Z-2.5000
G01 Z0
G00 Z1.0000
G00 X156.2317 Y167.1617
G01 Z-2.5000
G01 Z0
G00 Z1.0000
G00 X156.2317 Y164.6217
G01 Z-2.5000
G01 Z0
G00 Z1.0000
G00 X156.2317 Y162.0817
G01 Z-2.5000
G01 Z0
G00 Z1.0000
G00 X156.2317 Y159.5417
G01 Z-2.5000
G01 Z0
G00 Z1.0000
G00 X154.9617 Y153.1917
G01 Z-2.5000
G01 Z0
G00 Z1.0000
G00 X154.9617 Y149.3817
G01 Z-2.5000
G01 Z0
G00 Z1.0000
G00 X159.1017 Y133.1817
G01 Z-2.5000
G01 Z0
G00 Z1.0000
G00 X152.4217 Y149.3817
G01 Z-2.5000
G01 Z0
G00 Z1.0000
G00 X149.8817 Y149.3817
G01 Z-2.5000
G01 Z0
G00 Z1.0000
G00 X147.3417 Y149.3817
G01 Z-2.5000
G01 Z0
G00 Z1.0000
G00 X144.8017 Y149.3817
G01 Z-2.5000
G01 Z0
G00 Z1.0000
G00 X142.2617 Y149.3817
G01 Z-2.5000
G01 Z0
G00 Z1.0000
G00 X139.7217 Y149.3817
G01 Z-2.5000
G01 Z0
G00 Z1.0000
G00 X136.4217 Y141.2287
G01 Z-2.5000
G01 Z0
G00 Z1.0000
G00 X129.5617 Y141.7617
G01 Z-2.5000
G01 Z0
G00 Z1.0000
G00 X127.0217 Y141.7617
G01 Z-2.5000
G01 Z0
G00 Z1.0000
G00 X124.4817 Y141.7617
G01 Z-2.5000
G01 Z0
G00 Z1.0000
G00 X121.9417 Y141.7617
G01 Z-2.5000
G01 Z0
G00 Z1.0000
G00 X119.4017 Y141.7617
G01 Z-2.5000
G01 Z0
G00 Z1.0000
G00 X116.8617 Y141.7617
G01 Z-2.5000
G01 Z0
G00 Z1.0000
G00 X111.7817 Y139.2217
G01 Z-2.5000
G01 Z0
G00 Z1.0000
G00 X106.7017 Y146.3317
G01 Z-2.5000
G01 Z0
G00 Z1.0000
G00 X101.6217 Y146.3317
G01 Z-2.5000
G01 Z0
G00 Z1.0000
G00 X96.5417 Y146.3317
G01 Z-2.5000
G01 Z0
G00 Z1.0000
G00 X87.1017 Y133.1817
G01 Z-2.5000
G01 Z0
G00 Z1.0000
G00 X91.4617 Y146.3317
G01 Z-2.5000
G01 Z0
G00 Z1.0000
G00 X95.2717 Y158.2717
G01 Z-2.5000
G01 Z0
G00 Z1.0000
G00 X95.2717 Y163.3517
G01 Z-2.5000
G01 Z0
G00 Z1.0000
G00 X95.2717 Y168.4317
G01 Z-2.5000
G01 Z0
G00 Z1.0000
G00 X95.2717 Y173.5117
G01 Z-2.5000
G01 Z0
G00 Z1.0000
G00 X95.2717 Y178.5917
G01 Z-2.5000
G01 Z0
G00 Z1.0000
G00 X95.2717 Y183.6717
G01 Z-2.5000
G01 Z0
G00 Z1.0000
G00 X103.1617 Y183.6717
G01 Z-2.5000
G01 Z0
G00 Z1.0000
G00 X107.9717 Y183.6717
G01 Z-2.5000
G01 Z0
G00 Z1.0000
G00 X107.9717 Y191.2917
G01 Z-2.5000
G01 Z0
G00 Z1.0000
G00 X103.1617 Y191.2917
G01 Z-2.5000
G01 Z0
G00 Z1.0000
G00 X95.2717 Y188.7517
G01 Z-2.5000
G01 Z0
G00 Z1.0000
G00 X95.2717 Y193.8317
G01 Z-2.5000
G01 Z0
G00 Z1.0000
G00 X95.2717 Y198.9117
G01 Z-2.5000
G01 Z0
G00 Z1.0000
G00 X103.1617 Y198.9117
G01 Z-2.5000
G01 Z0
G00 Z1.0000
G00 X107.9717 Y198.9117
G01 Z-2.5000
G01 Z0
G00 Z1.0000
G00 X103.9617 Y203.9617
G01 Z-2.5000
G01 Z0
G00 Z1.0000
G00 X107.9717 Y205.2617
G01 Z-2.5000
G01 Z0
G00 Z1.0000
G00 X107.4877 Y208.9777
G01 Z-2.5000
G01 Z0
G00 Z1.0000
G00 X107.9717 Y212.8817
G01 Z-2.5000
G01 Z0
G00 Z1.0000
G00 X110.5117 Y216.6917
G01 Z-2.5000
G01 Z0
G00 Z1.0000
G00 X111.7817 Y220.5017
G01 Z-2.5000
G01 Z0
G00 Z1.0000
G00 X107.9717 Y220.5017
G01 Z-2.5000
G01 Z0
G00 Z1.0000
G00 X104.1617 Y220.5017
G01 Z-2.5000
G01 Z0
G00 Z1.0000
G00 X101.7377 Y222.8957
G01 Z-2.5000
G01 Z0
G00 Z1.0000
G00 X102.8917 Y216.6917
G01 Z-2.5000
G01 Z0
G00 Z1.0000
G00 X103.9617 Y211.5817
G01 Z-2.5000
G01 Z0
G00 Z1.0000
G00 X95.2717 Y203.9917
G01 Z-2.5000
G01 Z0
G00 Z1.0000
G00 X95.2717 Y209.0717
G01 Z-2.5000
G01 Z0
G00 Z1.0000
G00 X95.2717 Y214.1517
G01 Z-2.5000
G01 Z0
G00 Z1.0000
G00 X95.2717 Y219.2317
G01 Z-2.5000
G01 Z0
G00 Z1.0000
G00 X95.2717 Y224.3117
G01 Z-2.5000
G01 Z0
G00 Z1.0000
G00 X95.2717 Y229.3917
G01 Z-2.5000
G01 Z0
G00 Z1.0000
G00 X87.1017 Y250.1817
G01 Z-2.5000
G01 Z0
G00 Z1.0000
G00 X99.0817 Y238.2817
G01 Z-2.5000
G01 Z0
G00 Z1.0000
G00 X104.1617 Y238.2817
G01 Z-2.5000
G01 Z0
G00 Z1.0000
G00 X104.1617 Y231.2277
G01 Z-2.5000
G01 Z0
G00 Z1.0000
G00 X104.1617 Y228.1217
G01 Z-2.5000
G01 Z0
G00 Z1.0000
G00 X107.9717 Y228.1217
G01 Z-2.5000
G01 Z0
G00 Z1.0000
G00 X111.7817 Y228.1217
G01 Z-2.5000
G01 Z0
G00 Z1.0000
G00 X109.8907 Y230.9797
G01 Z-2.5000
G01 Z0
G00 Z1.0000
G00 X109.2417 Y238.2817
G01 Z-2.5000
G01 Z0
G00 Z1.0000
G00 X114.3217 Y238.2817
G01 Z-2.5000
G01 Z0
G00 Z1.0000
G00 X119.4017 Y238.2817
G01 Z-2.5000
G01 Z0
G00 Z1.0000
G00 X124.4817 Y238.2817
G01 Z-2.5000
G01 Z0
G00 Z1.0000
G00 X129.5617 Y238.2817
G01 Z-2.5000
G01 Z0
G00 Z1.0000
G00 X134.6417 Y238.2817
G01 Z-2.5000
G01 Z0
G00 Z1.0000
G00 X139.7217 Y238.2817
G01 Z-2.5000
G01 Z0
G00 Z1.0000
G00 X137.3017 Y231.6357
G01 Z-2.5000
G01 Z0
G00 Z1.0000
G00 X140.8487 Y231.4247
G01 Z-2.5000
G01 Z0
G00 Z1.0000
G00 X141.4417 Y228.2017
G01 Z-2.5000
G01 Z0
G00 Z1.0000
G00 X146.1017 Y230.6507
G01 Z-2.5000
G01 Z0
G00 Z1.0000
G00 X144.8017 Y238.2817
G01 Z-2.5000
G01 Z0
G00 Z1.0000
G00 X149.8817 Y238.2817
G01 Z-2.5000
G01 Z0
G00 Z1.0000
G00 X155.1357 Y241.8147
G01 Z-2.5000
G01 Z0
G00 Z1.0000
G00 X159.1017 Y250.1817
G01 Z-2.5000
G01 Z0
G00 Z1.0000
M05
G00 Z35.00


